X:1
T:24 Arie Antiche
T:Non posso disperar
T: Giovanni Battista Bononcini (1670-1747) misattributed  to S. De Luca (15...-16...) by Alessandro Parisotti (1853-1913)
T:Non posso disperar
T:(24 Arie Antiche) Arietta
T:High voices
T:Creative Commons copyright waiver (CC0 1.0 Universal)
T:Creative Commons copyright waiver (CC0 1.0 Universal)
T:Creative Commons copyright waiver (CC0 1.0 Universal)
T:Creative Commons copyright waiver (CC0 1.0 Universal)
T:Creative Commons copyright waiver (CC0 1.0 Universal)
T:Creative Commons copyright waiver (CC0 1.0 Universal)
T:Creative Commons copyright waiver (CC0 1.0 Universal)
T:Creative Commons copyright waiver (CC0 1.0 Universal)
T:Creative Commons copyright waiver (CC0 1.0 Universal)
C:Giovanni Battista Bononcini (1670-1747)
Z:Creative Commons copyright waiver (CC0 1.0 Universal)
%%score 1 { ( 2 4 ) | ( 3 5 ) }
L:1/8
Q:1/4=80
M:4/4
K:G
V:1 treble nm="CANTO"
V:2 treble nm="PIANO"
V:4 treble 
V:3 bass 
V:5 bass 
V:1
"^AND.te GRAZIOSO" z2 z B c c c c | (BE) z2 z4 | z8 | z8 | z2 z!p! B c c c c | %5
w: Non pos- so di- spe-|rar, _|||non pos- so di- spe-|
 (!>!cB) z B e .A .A .A | (!>!A2 G2) !>!c =F F F | (!>!=F2 E) .c!>(! .B .A .G .^F!>)! | %8
w: rar, _ sei trop- po, trop- po|ca- ra, trop- po, trop- po|ca- ra, sei trop- po ca- raal|
 !breath!E!p! F !>!G3 A F3/2 G/ | !breath!G A"^cresc." !>!B3 ^c ^A2 | %10
w: cor; non pos- so di- spe-|rar, sei trop- po ca-|
"^cresc." !breath!B!f! ^c d3[Q:1/4=72]"^rit." !breath!!tenuto!e !tenuto!c3/2[Q:1/4=68] !tenuto!d/ | %11
w: ra, sei trop- po ca- raal|
 !breath!d!pp! =c[Q:1/4=74]"^a tempo" !>!c3 (B/A/)[Q:1/4=70] ^G3/2 A/ | %12
w: cor; non pos- so _ di- spe-|
!f!"^deciso e rall."[Q:1/4=68] !breath!A c !>!d3 (c/B/) (A2[Q:1/4=64] | %13
w: rar, sei trop- po * ca-|
[Q:1/4=80]({GA))} G2[Q:1/4=76] z2 z4 | z2 z!p! B c c c (B/A/) |!<(! !>!B4-!<)! B!>(! A G!>)! F | %16
w: ra,|sei trop- po, trop- po *|ca- * ra, ca- raal|
 E2[Q:1/4=78] z2 z4 | z2 z B c c c (B/A/) | %18
w: cor,|Sei trop- po, trop- po *|
!<(! B4-[Q:1/4=72] B!<)!"^assai rit." !>!A !>!G{FG} !>!F | E2[Q:1/4=76] z2 z4 | z8 |[Q:1/4=72] z8 | %22
w: ca- * ra, ca- raal|cor.|||
 z2[Q:1/4=78] z!p!"^dolce e legato assai" D (GF) G A | (BA) B2 z2 z D | (GF) G A (BA) B c | %25
w: Il so- * lo spe-|ra- * re, il|so- * lo spe- ra- * re, d'a-|
 !>!d2 c B A2 D A |[Q:1/4=76] B2 A B c2- c d/ c/ | B2 A3/2 G/ !breath!G A _B2- | B2 A3 _B !>!G2- | %29
w: ver a~ gio- i- re m'èun|dol- ce lan- gui- * re,  m'èun|ca- ro do- lor,  m'èun ca-|* ro, m'èun  ca-|
 (GA) ^F3/2 G/ G2 z!p! B | (^cB) c B B ^A z B |"^cresc." (cB) c B B ^A z!mf! .f | %32
w: * * ro do- lor, il|so- * lo spe- ra- re d'a \-|ver- * a gio- i- re, m'èun|
 ^c2!<(! c d (e!<)!^A) B c |"^cresc." d2 ^c3/2 B/!<(! B2!<)! c2 |!f! d2 z f!pp! ^c2 c d | %35
w: dol- ce lan- gui- * re,  m'èun|ca- ro do- lor, ah,|si! m'èun dol- ce lan-|
!<(! (e^A) B ^c !>!d2!<)![Q:1/4=72]"^rit."!>(! c B!>)! | B3[Q:1/4=76]!p!"^a piacere" B =c c c c | %37
w: gui- * re,  m'èun ca- ro do-|lor. Non~ pos- so~ di- spe|
 (BE) z2 z4 | z8 | z8 | z2 z!p! B =c c c c | (!>!cB) z B .e .A .A .A | (!>!A2 G2) !>!c =F F F | %43
w: rar, _|||non po- so di- spe-|rar, _ sei trop- po, trop- po|ca- ra,~ trop- po,~ trop- po~|
 !>!=F2 E .c!>(! .B .A .G .^F!>)! | !breath!E F !>!G3 A F3/2 G/ | %45
w: ca- ra,~ sei~ trop- po~ ca- raal|cor;~ non~ pos- so~ di- spe-|
 !breath!G A"^cresc." !>!B3 ^c ^A2 | %46
w: rar,~ sei~ trop- po~ ca-|
"^cresc." !breath!B!f! ^c d3[Q:1/4=68]"^rit." !tenuto!e !tenuto!c3/2 !tenuto!d/ | %47
w: ra sei~ trop- po~ ca- raal|
 !breath!d!pp! =c[Q:1/4=76]"^a tempo" !>!c3 (B/A/) ^G3/2 A/ | %48
w: cor;~ non~ pos- so~ * di- spe-|
!f!"^deciso e rall."[Q:1/4=70] !breath!A c d3 (c/B/) A2 |[Q:1/4=76]{GA} G2 z2 z4 | %50
w: rar,~ sei~ trop- po~ * ca-|ra,|
 z2 z!p! B c c c (B/A/) |!<(! !>!B4-!<)! B!>(! A G!>)! F | E2 z2 z4 | z2 z B c c c (B/A/) | %54
w: sei trop- po, trop- po *|ca- * ra, ca- raal|cor,|Sei trop- po, trop- po *|
!<(! B4- B!<)!"^assai rit."[Q:1/4=72] !>!A !>!G{FG} !>!F | E2[Q:1/4=76] z2 z4 | z8 | %57
w: ca- * ra, ca- raal|cor.~||
[Q:1/4=70] z8[Q:1/4=66] | z8 |] %59
w: ||
V:2
 z8 | z8 | z2 z B .c.c !>!c(B/A/) |!>(! !>!B(c/B/ AG F) !>![EG]2 [^DF]!>)! | [G,B,E]2 z2 z4 | %5
 z [DGB] z [DGd] z [EA] z [B,FA] | z [B,EA] z [B,EG] z [C=Fc] z [DFG] | %7
 z ([D=FG][CEG][CEc]) (.[EB].[C^FA].[B,EG].[A,B,^DF] | [G,B,E])!p!F (!>!G2- GA F2 | %9
 G)(A"_cresc." (B2-) B^c ^A2 |"_cresc." B)(^c d2-) dec>d | d=c (!>!c2- cc/A/ (^G2) | %12
!f! A)c (!>!d2- dc/B/ A2) | [B,DG]2 z2 z4 | z2 z (B c).c (!>!cB/A/) | %15
 (!>!Bc/B/ A).G!>(! (F[EA][EG]!>)![^DF]) | [G,B,E]2 z2 z4 | z2 z (B c)c (!>!cB/A/) | %18
 (!>!Bc/B/ A).G (F!>![EA]!>![EG]!>![^DF]) | [G,B,E]2!ff! !>![EGe]2 .e.e (!>!ed/c/) | %20
 .d.d(!>!dB) cc (!>!cB/A/) | BB (!>!AG) !>![B,F]!>![B,EG]!>![CEG]!>![A,^DF] | [G,B,E]2 z2 z4 | %23
 z2 z (A BABc) | !>![Dd]2 !>![Dd]2 !>![Dd]2 !>![Dd]2 | (!>![DGd]2 cB A2) z2 | %26
 ([GB]2 [FA][GB]) (.c.c .cd/c/) | ([DGB]2 !>![CDFA]2 G) .A _B2- | B2 A2- A_B !>!G2- | %29
 GA ^F2 G2 !>![DG=B]2 |!p! (^cBcB) (!>!B^A) .B.B |"_cresc." (cBcB) (!>!B^A) .B.f | %32
!mf!!<(! [G^c]2- [Gc][FBd]!<)!!>(! ([EBe][F^A][FB]!>)![Fc]) | %33
"_cresc." ([Fd][EGd] [EF^c]2!<(! .[DFB]2) [EFc]!<)![EF^A] | %34
!f! [DFB]2 z .[FBf]!pp! ([G^c]2- [Gc][FBd]) | %35
!<(! ([EBe][F^A] [FB][F^c] [Fd][EGd]!<)!!>(! [EFAc]2)!>)! | [DFB]2 z2 z4 | z8 | %38
 z2 z!<(! B .c.c (!>!cB/A/)!<)! |!>(! (!>!Bc/B/ A).G F !>![EG]2 [^DF]!>)! | [G,B,E]2 z2 z4 | %41
 z [DGB] z [DGd] z [EA] z [B,FA] | z [B,EA] z [B,EG] z [C=Fc] z [DFG] | %43
 z ([D=FG][CEG][CEc]) (.[EB].[C^FA].[B,EG].[A,B,^DF] | .[G,B,E])(F !>!G2-) GA F2 | %45
 G(A"_cresc." !>!B2-) B^c ^A2 |"_cresc." B(^c d2-) dec>d | d!pp!=c (!>!c2- cc/A/ (^G2) | %48
!f! A)c (!>!d2- dc/B/ A2) | [B,DG]2 z2 z4 | z2 z (B c).c (!>!cB/A/) | %51
!<(! (!>!Bc/B/ A)!<)!.G!>(! (F[EA][EG]!>)![^DF]) | [G,B,E]2 z2 z4 | z2 z (B .c).c (!>!cB/A/) | %54
 (!>!Bc/B/ A).G (F!>![EA]!>![EG]!>![^DF]) | [G,B,E]2!ff! !>![EGe]2 .e.e (!>!ed/c/) | %56
 .d.d (!>!dB) cc (!>!cB/A/) | BB (!>!AG)!f! !>![B,F]!>![B,EG]!>![CEG]!>![A,^DF] | [G,B,E]2 z2 z4 |] %59
V:3
 z8 | z2 z (B, C).C !>!C(B,/A,/) |!<(! .B,.B,.B,(E, A,).A, !>!A,(G,/!<)!F,/) | %3
 (G,A,/G,/ F,).E, (!>!^D,E,) !>!A,,!>!B,, | E,,2 z2 z4 |!p! (G,2!<(! B,,2 ^C,2!<)! ^D,2 | %6
 E,2)!<(! (G,,2 A,,2!<)! B,,2) | (!>!C,3 A,, G,,A,,B,,B,,, | E,,2) z (B,, C,A,,D,D,, | %9
 G,,2) z D, E,^C,F,F,, | B,,2 z"^rit." (F, G,E,A,A,, | D,)!pp! z"^a tempo" (^D,2 E,2 E,,2 | %12
"^deciso e rall." A,,2) !>!B,,2 !>!C,2 (D,D,,) | G,,2 z ((B, C)).C ((!>!CB,/A,/)) | %14
 .B,.B,(!>!B,E,) .A,.A, (!>!A,G,/F,/) |!<(! (!>!G,A,/G,/ F,)!<)!.E, (!>!^D,E,).A,,.B,, | %16
 E,2 z!p! (B, C).C (!>!CB,/A,/) | .B,.B,(!>!B,E,) .A,.A, (!>!A,G,/F,/) | %18
 (!>!G,A,/G,/ F,).E,"^assai rit." (!>!^D,E,)!>!A,,!>!B,, | %19
 E,,2 z"^e deciso" [B,,B,] .[C,C].[C,C] (!>![C,C][B,,B,]/[A,,A,]/) | DDDD CCCC | %21
 !>![G,,G,]([A,,A,]/!ff![G,,G,]/) [F,,F,].[E,,E,] !>![^D,,^D,]!>![E,,E,]!>![A,,,A,,]!>![B,,,B,,] | %22
 [E,,,E,,]2 z2 z2 z!p! D,, | (G,,F,,!p!"^legatissimo"G,,)(D, G,F,G,A, | B,A,B,)(D, G,F,G,G,,) | %25
 (B,,2!>(! C,2!>)! D,2) z2 | D,4 (E,F,E,C,) | (D,C,D,D,, G,,) z z .D, | %28
 (_E,C,=F,=F,, _B,,2) z .B,, | (C,A,,D,D,, G,,2) z .G, | (E,F,G,E, F,2) z .D, | %31
 (E,F,G,E, F,2) z .D, | (E,D,E,F, G,)(F,/E,/ D,^A,, | B,,)(E,F,F,, B,,)(B,^A,F,) | %34
 (B,,^C,D,B,,) (E,D,E,F,) | (G,F,/E,/ D,^A,,) (B,,E,,"^rit"F,,F,,, | [B,,,B,,]2) z2 z4 | %37
 z2 z (B, C).C (!>!CB,/A,/) | .B,.B,.B,(E, A,).A, (!>!A,G,/F,/) | %39
 (G,A,/G,/ F,).E, (!>!^D,E,) !>!A,,!>!B,, | E,,2 z2 z4 | (G,2!<(! B,,2 ^C,2!<)! ^D,2 | %42
 E,2)!<(! (G,,2 A,,2!<)! B,,2) | (!>!C,3 A,, G,,A,,B,,B,,, | E,,2) z (B,, C,A,,D,D,, | %45
 G,,2) z (D, E,^C,F,F,, | B,,2) z"^rit." (F, G,E,A,A,, | D,) z"^a tempo" (^D,2 E,2 E,,2 | %48
"^deciso e rall." A,,2) !>!B,,2 !>!C,2 (D,D,,) | G,,2 z (B, C).C (!>!CB,/A,/) | %50
 .B,.B,(!>!B,E,) .A,.A, (!>!A,G,/F,/) | (!>!G,A,/G,/ F,).E, (!>!^D,E,) .A,,.B,, | %52
 E,2 z!p! (B, C).C (!>!CB,/A,/) | .B,.B,(!>!B,E,) .A,.A, (!>!A,G,/F,/) | %54
 !>!G,(A,/G,/ F,)E, !>!^D,E,!>!A,,!>!B,, | %55
 E,,2 z"^e deciso" [B,,B,] .[C,C].[C,C] ((!>![C,C][B,,B,]/[A,,A,]/)) | DDDD CCCC | %57
"^assai rall. e" (!>![G,,G,][A,,A,]/[G,,G,]/ [F,,F,]).[E,,E,] !>![^D,,^D,]!>![E,,E,]!>![A,,,A,,]!>![B,,,B,,] | %58
 [E,,,E,,]2 z2 z4 |] %59
V:4
 x8 | x8 | x4 E E2 (E | E)E^DE B,B,CA, | x8 | x8 | x8 | x8 | x z z (=D ECDC | [B,D]) z z (F GEFE | %10
 [DF]) z z (=A BGAG | [FA]) z z [FA] [EG]2 z ([DE] | [CE]) z z [DG] [EG]2 [DG][CDF] | x8 | %14
 x4 E E2 E- | EE^DE B,CCA, | x8 | x4 E E2 E- | EE^DE B,CCA, | x4 [EA][EA][EA][EA] | %20
 (AG/F/) .G.G (GF/E/) .F.F | [B,F][B,E] [B,^D][B,E] x4 | x8 | x8 | x8 | x2 [EG]2 F2 x2 | %26
 D4 [CG][CA][CG][EA] | x4 [B,D] z z (=F | G_ECE D) z z D | (_ECA,C =B,2) x2 | %30
 ([EG]4 [^CF]2) .[DF].[B,F] | ([EG]4 [^CF]2) .[DF].[FB] | x8 | x8 | x8 | x8 | x8 | x8 | %38
 x4 E E2 (E | E)E^DE B,B,CA, | x8 | x8 | x8 | x8 | x z z!p! D ECDC | [B,D] z z (F GEFE | %46
 [DF]) z z (=A BGAG | [FA]) z z [FA] [EG]2 z ([DE] | [CE]) z z [DG] [EG]2 [DG][CDF] | x8 | %50
 x4 E E2 E- | EE^DE B,CCA, | x8 | x4 E E2 E- | EE^DE B,CCA, | x4 [EA][EA][EA].[EA] | %56
 (AG/F/) GG (GF/E/) FF | [B,F][B,E] [B,^D][B,E] z4 | x8 |] %59
V:5
 x8 | x8 | x8 | x8 | x8 | x8 | x8 | x8 | x8 | x8 | x8 | x8 | x8 | x8 | x8 | x8 | x8 | x8 | x8 | %19
 x8 | .[B,,B,].[B,,B,](!>![B,,B,][E,,E,]) .[A,,A,].[A,,A,] (!>![A,,A,][G,,G,]/[F,,F,]/) | x8 | x8 | %23
 x8 | x8 | x8 | x8 | x8 | x8 | x8 | x8 | x8 | x8 | x8 | x8 | x8 | x8 | x8 | x8 | x8 | x8 | x8 | %42
 x8 | x8 | x8 | x8 | x8 | x8 | x8 | x8 | x8 | x8 | x8 | x8 | x8 | x8 | %56
 .[B,,B,].[B,,B,](!>![B,,B,][E,,E,]) .[A,,A,].[A,,A,] (!>![A,,A,][G,,G,]/[F,,F,]/) | x8 | x8 |] %59

